**kern
*clefC3
*k[b-e-a-]
*M6/8
=1-
16c
4c
4d
16c
16c
16B-
=2
8B#
2B#
16c
16d
=3
4c
2r
=4
4c
4B-
16c
8B-
(16B-
=5
4r
8r
8B-
4A-
=6
4G
16G
8G 8E-
8A-
16A-
(16G
16G
=7
16A-)
4G
4A-
8G
16r
=8
8.F#
2F#
16F#
=9
2E#
4D-
=10
2C
4D
=11
*-